svgs/sharp-light/microphone.svg

<svg xmlns="http://www.w3.org/2000/svg" viewBox="0 0 384 512"><!--! Font Awesome Pro 6.6.0 by @fontawesome - https://fontawesome.com License - https://fontawesome.com/license (Commercial License) Copyright 2024 Fonticons, Inc. --><path d="M128 32l128 0 0 224c0 35.3-28.7 64-64 64s-64-28.7-64-64l0-224zM96 0l0 32 0 224c0 53 43 96 96 96s96-43 96-96l0-224 0-32L256 0 128 0 96 0zM64 208l0-16-32 0 0 16 0 48c0 83 63.1 151.2 144 159.2l0 64.8-64 0-16 0 0 32 16 0 80 0 80 0 16 0 0-32-16 0-64 0 0-64.8c80.9-8 144-76.2 144-159.2l0-48 0-16-32 0 0 16 0 48c0 70.7-57.3 128-128 128s-128-57.3-128-128l0-48z"/></svg>

<svg xmlns="http://www.w3.org/2000/svg" viewBox="0 0 384 512"><!--! Font Awesome Pro 6.4.2 by @fontawesome - https://fontawesome.com License - https://fontawesome.com/license (Commercial License) Copyright 2023 Fonticons, Inc. --><path d="M128 32H256V256c0 35.3-28.7 64-64 64s-64-28.7-64-64V32zM96 0V32 256c0 53 43 96 96 96s96-43 96-96V32 0H256 128 96zM64 208V192H32v16 48c0 83 63.1 151.2 144 159.2V480H112 96v32h16 80 80 16V480H272 208V415.2c80.9-8 144-76.2 144-159.2V208 192H320v16 48c0 70.7-57.3 128-128 128s-128-57.3-128-128V208z"/></svg>
